localPackages/DesignSystem/Sources/DesignSystem/Resources/Assets.xcassets/IconSet/ic-wallet.imageset/ic-wallet.svg

<svg width="24" height="24" viewBox="0 0 24 24" fill="none" xmlns="http://www.w3.org/2000/svg">
<g id="ic-wallet">
<path id="Icon" fill-rule="evenodd" clip-rule="evenodd" d="M1.5 6C1.5 4.34315 2.84315 3 4.5 3H20.25C21.4926 3 22.5 4.00736 22.5 5.25V8.25V9V20.25C22.5 21.4926 21.4926 22.5 20.25 22.5H4.5C2.84315 22.5 1.5 21.1569 1.5 19.5V6ZM21 5.25V7.5H4.5C3.67157 7.5 3 6.82843 3 6C3 5.17157 3.67157 4.5 4.5 4.5H20.25C20.6642 4.5 21 4.83579 21 5.25ZM4.5 9C3.95357 9 3.44126 8.85391 3 8.59865V19.5C3 20.3284 3.67157 21 4.5 21H20.25C20.6642 21 21 20.6642 21 20.25V9H4.5ZM16.5 15C16.5 14.5858 16.8358 14.25 17.25 14.25C17.6642 14.25 18 14.5858 18 15C18 15.4142 17.6642 15.75 17.25 15.75C16.8358 15.75 16.5 15.4142 16.5 15ZM17.25 12.75C16.0074 12.75 15 13.7574 15 15C15 16.2426 16.0074 17.25 17.25 17.25C18.4926 17.25 19.5 16.2426 19.5 15C19.5 13.7574 18.4926 12.75 17.25 12.75Z" fill="#0F0F0F"/>
</g>
</svg>

<svg xmlns="http://www.w3.org/2000/svg" width="24" height="24" viewBox="0 0 24 24">
  <g class="ic-wallet">
    <path fill-rule="evenodd" d="M1.5 6a3 3 0 0 1 3-3h15.75a2.25 2.25 0 0 1 2.25 2.25v15a2.25 2.25 0 0 1-2.25 2.25H4.5a3 3 0 0 1-3-3V6ZM21 5.25V7.5H4.5a1.5 1.5 0 1 1 0-3h15.75a.75.75 0 0 1 .75.75ZM4.5 9A2.986 2.986 0 0 1 3 8.599V19.5A1.5 1.5 0 0 0 4.5 21h15.75a.75.75 0 0 0 .75-.75V9H4.5Zm12 6a.75.75 0 1 1 1.5 0 .75.75 0 0 1-1.5 0Zm.75-2.25a2.25 2.25 0 1 0 0 4.5 2.25 2.25 0 0 0 0-4.5Z" class="Icon"/>
  </g>
</svg>
